sliced-svg/output/0196-colon.svg

<?xml version="1.0" encoding="UTF-8"?><svg xmlns="http://www.w3.org/2000/svg" xmlns:xlink="http://www.w3.org/1999/xlink" width="1000px" height="1000px" version="1.1"><g id="surface1"><path style="stroke:none;fill-rule:nonzero;fill:rgb(0%,0%,0%);fill-opacity:1" d="M550 655C550 682.613281 527.613281 705 500 705 472.386719 705 450 682.613281 450 655 450 627.386719 472.386719 605 500 605 527.613281 605 550 627.386719 550 655zM550 345C550 372.613281 527.613281 395 500 395 472.386719 395 450 372.613281 450 345 450 317.386719 472.386719 295 500 295 527.613281 295 550 317.386719 550 345zM550 345"/></g></svg>

<svg xmlns="http://www.w3.org/2000/svg" width="1000" height="1000"><defs/><path d="M550 655c0 27.613-22.387 50-50 50s-50-22.387-50-50 22.387-50 50-50 50 22.387 50 50zm0-310c0 27.613-22.387 50-50 50s-50-22.387-50-50 22.387-50 50-50 50 22.387 50 50zm0 0"/></svg>
